material/.icons/material/alpha-q-box-outline.svg

<svg xmlns="http://www.w3.org/2000/svg" viewBox="0 0 24 24"><path d="M5 4h14a2 2 0 012 2v14a2 2 0 01-2 2H5a2 2 0 01-2-2V6a2 2 0 012-2m0 2v14h14V6H5m6 1h2a2 2 0 012 2v6a2 2 0 01-2 2v2h-2v-2a2 2 0 01-2-2V9a2 2 0 012-2m0 2v6h2V9h-2z"/></svg>

<?xml version="1.0" encoding="UTF-8"?><!DOCTYPE svg PUBLIC "-//W3C//DTD SVG 1.1//EN" "http://www.w3.org/Graphics/SVG/1.1/DTD/svg11.dtd"><svg xmlns="http://www.w3.org/2000/svg" xmlns:xlink="http://www.w3.org/1999/xlink" version="1.1" id="mdi-alpha-q-box-outline" width="24" height="24" viewBox="0 0 24 24"><path d="M5,4H19A2,2 0 0,1 21,6V20A2,2 0 0,1 19,22H5A2,2 0 0,1 3,20V6A2,2 0 0,1 5,4M5,6V20H19V6H5M11,7H13A2,2 0 0,1 15,9V15A2,2 0 0,1 13,17V19H11V17A2,2 0 0,1 9,15V9A2,2 0 0,1 11,7M11,9V15H13V9H11Z" /></svg>
